X:1
T:Title
%%score { 1 | 2 }
L:1/8
M:4/4
K:Db
V:1 treble nm="Grand Piano"
V:2 bass 
V:1
 z4 z2[Q:1/4=106] DE | F2 ED [CA]2[K:bass] [G,CE][A,CF] | [F,D]6[K:treble] [A,DF][A,EG] | %3
 [DFA]2 [A,DF][A,FA] [Gd]2 [Ac][GB] | [FA]6 [FA][FA] | B2 GB d2 [Ac][GB] | [FA]2 [DF][EG] [FA]4 | %7
 [GB]2 [Gc][Gc] [Fd] [DFA]2[K:bass] [F,D] | [A,DF]2 [G,CE]2 [F,D]4 | %9
 [DFA]2 [A,DF][DFA] [Fd] [Fd]2 [FA] | [GB]2 [Gd]2 [FA]4 | [GB]2 [Gc][Gc] [Fd] [FA]2 F | %12
[M:3/4] E2 B2 [CA]2 |[M:1/4] [EG][EG] |[M:4/4] [DF]2 [EG]2 [FA]2 [DF][DF] | [DG]2 A2 B4 | %16
 d2 [CAc][DGB] [DFA] [A,DF]2 [=G,D] | %17
[M:7/8] [A,DF]2[K:bass] [G,CE]2 [F,D]3[Q:1/4=104][Q:1/4=103][Q:1/4=101][Q:1/4=99][Q:1/4=98][Q:1/4=96][Q:1/4=94][Q:1/4=93][Q:1/4=91][Q:1/4=89][Q:1/4=88][Q:1/4=86][Q:1/4=84][Q:1/4=83][Q:1/4=81] |] %18
V:2
 z4 z2 [D,F,][D,G,] | [D,A,D]2 [D,G,D][D,F,] [A,,E,]2 A,,A,, | D,6 D,D, | %3
 D,2 D,D, [D,B,]2 [D,C][D,D] | [D,D]6 [D,D][D,D] | [G,DG]2 [G,B,D][G,DG] [G,B,G]2 [G,C][G,D] | %6
 [D,D]2 [D,A,][D,A,] [D,D]4 | [G,D]2 [E,A,][E,A,] [D,A,] D,2 D, | A,,2 A,,2 D,4 | %9
 D,2 D,D, [D,A,] [D,A,]2 [D,D] | [G,D]2 [G,B,]2 [D,D]4 | %11
 [G,D]2 [E,A,][E,A,] [D,A,] [D,D]2 [D,A,D] |[M:3/4] [E,A,C]2 [E,=G,D]2 [A,,A,]2 | %13
[M:1/4] [A,,A,][A,,A,] |[M:4/4] [D,A,]2 [D,A,]2 [D,D]2 [D,A,][_C,A,] | [B,,G,]2 [D,F,D]2 [G,D]4 | %16
 [G,B,G]2 G,G, D, D,2 B,, |[M:7/8] A,,2 A,,2 D,3 |] %18

